!!!COM: Falla (y Matheu), Manuel de
!!!OTL: La vida breve (The Brief Life), Opera in Two Acts
!!!OMV: Act II, Scene 1
!!!example: 301
!!!work: Fal-1
**kern	**kern	**dynam
*part1	*part1	*part1
*staff2	*staff1	*
*I"Piano	*	*
*I'Pno.	*	*
*clefF4	*clefG2	*
*k[]	*k[]	*
*C:	*C:	*
*M3/8	*M3/8	*
=127	=	=
*^	*	*
(16cLL	4.A	(16eeLL	.
16e	.	16ff#X	.
16c	.	16gg#X	.
16e	.	16aa	.
16c	.	16bb	.
16eJJ	.	16cccJJ)	.
=128	=128	=128	=128
16cLL	4.A-X	8eee'	f
16e	.	.	.
16c	.	4ee~	>
16e	.	.	.
16c	.	.	.
16eJJ	.	.	.
=129	=129	=129	=129
16GLL) 16c	8r	8r	]
16e	.	.	.
16c	8r	([4gg~	p
16e	.	.	.
16G 16c	8GG'	.	.
16eJJ	.	.	.
=130	=130	=130	=130
(16GLL 16c	8F'L	16ggLL]	.
16f	.	16aa	.
16c	8G'	16bb	.
16f	.	16ccc)	.
16G 16B	8GG'J	16aa	.
16fJJ)	.	16bbJJ	.
=131	=131	=131	=131
(16GLL 16c	8C'	8gg'	.
16f	.	.	.
16c	8r	([4gg~	.
16f	.	.	.
16G 16B	8GG	.	.
16fJJ)	.	.	.
=132	=132	=132	=132
(16GLL 16c	8D'L	16ggLL]	.
16f	.	16aa	.
16c	8G'	16bb	.
16f	.	16ccc)	.
16G 16B	8GG'J	16aa	.
16fJJ)	.	16bbJJ	.
=133	=133	=133	=133
(16GLL 16c	8C'	4gg	.
16e	.	.	.
16c	8r	.	.
16e	.	.	.
16c	8E'	([8gg^	.
16eJJ)	.	.	.
*v	*v	*	*
=134	=134	=134
!!linebreak:original
8FL 8d	16ggLL]	.
.	16ff	.
*clefG2	*	*
8d 8b	16ee	.
.	16dd	.
8cJ 8a	16ee	.
.	(8qgg/	.
.	16ffJJ)	.
=135	=135	=135
8B 8g#X	8eeL	.
8r	(16BL 16e 16g#X	pp
.	16b	.
*clefF4	*	*
*8ba	*	*
([8BBB~	16B 16e 16g#	p
.	16bJJ	.
=136	=136	=136
16BBBLL]	16BLL 16f 16a	.
16CC	16b	.
16DD	16B 16f 16a	.
16EE	16b	.
16CC	16B 16f 16a	.
16DDJJ	16bJJ	.
=137	=137	=137
8BBB)	16BLL 16e 16g#X	.
.	16b	.
8r	16B 16e 16g#	.
.	16b	.
([8BBB~	16B 16e 16g#	.
.	16bJJ	.
=138	=138	=138
16BBBLL]	16BLL 16f 16a	.
16CC	16b	.
16DD	16B 16f 16a	.
16EE	16b	.
16CC	16B 16f 16a	.
16DDJJ	16bJJ)	.
=139	=139	=139
.	(8qg#X/	.
*	*^	*
8BB)	(16g#XLL)	4B~	.
.	16b	.	.
8r	16g#	.	.
.	16b	.	.
*	*v	*v	*
*X8ba	*	*
*	*^	*
8r	16g#	[8e~	.
.	16bJJ	.	.
=140	=140	=140	=140
8EE'	16g#XLL	8e]	.
.	16b	.	.
8r	16g#	4d~	.
.	16b	.	.
8r	16g#	.	.
.	16bJJ)	.	.
.	.	16qqc\	.
.	.	[16qqa\	.
=141	=141	=141	=141
8AA'L	([4.ee	4a]	.
8qA/	.	.	.
(16c#XL	.	.	.
16e	.	.	.
16E	.	[8gn	.
16eJJ	.	.	.
=142	=142	=142	=142
!!linebreak:original
16B-XLL	16eeLL]	8g]	.
16e	16ff	.	.
16d	16gg	4b-X	.
16e	16aa	.	.
16E	16ff	.	.
16eJJ)	16ggJJ)	.	.
=143	=143	=143	=143
(16ALL	([4.ee	4a~	.
16e	.	.	.
16c#X	.	.	.
16e	.	.	.
16E	.	[8g~	.
16eJJ	.	.	.
=144	=144	=144	=144
16B-XLL	16eeLL]	8g~]	.
16e	16ff	.	.
16d	16gg	4b-X~	.
16e	16aa	.	.
16E	16ff	.	.
16eJJ)	16ggJJ)	.	.
=145	=145	=145	=145
(16ALL	([4.ee	4a~	.
16e	.	.	.
16c#X	.	.	.
16e	.	.	.
16E	.	[8g~	.
16eJJ)	.	.	.
=146	=146	=146	=146
!!linebreak:original
(16ALL	16eeLL]	8g~L]	.
16eJ	16ff	.	.
8c#X)	16ee	8a	.
.	16dd	.	.
(8qAA/	.	.	.
8A'J)	16ee	8gJ	.
.	16ffJJ)	.	.
*	*v	*v	*
=147	=147	=147
8D'L	8fL 8dd	.
.	(8qee/	<
*clefG2	*	*
(8qee/	.	.
16ddL)	16ddL)	.
16cc#X	16cc#X	.
16dd	16dd	.
16eeJJ	16eeJJ	.
=148	=148	=148
16ffLL	16ffLL	.
16gg	16gg	.
16aa	16aa	.
16bb	16bb	.
16ccc#X	16ccc#X	.
16dddJJ)	16dddJJ)	.
=149	=149	=149
8ff'^L	8fff'^L	[
8ee'^	24eee^L	.
.	24fff	.
.	24eeeJ	.
8dd'^J	8ddd'^J	.
=150	=150	=150
8cc'^L	24ccc^LL	.
.	24ddd	.
.	24cccJ	.
8b'^	8bb'^	.
8a'^J	8aa'^J	.
==	==	==
*-	*-	*-
!!!CDT: 1876/11/23-1946/11/14
!!!CBL: Cádiz, Spain
!!!CDL: Alta Gracia, Argentina
!!!CNT: Spanish
!!!AGN: Stage; Opera
!!!MCN: Miranne, Jacques
!!!MDT: 1913/04/01
!!!MGN: unknown
!!!MLC: Nice, France
!!!MPD: 1913
!!!MPN: Bernard, Mlle; Cotreuil; Raynal; Devries, David; Durelly, Mlle; Fanty, Mlle; Gerday, Mlle; Grenville, Lilian; Terman; Rouziery
!!!ODT: 1913
!!!PDT: 1913
!!!excerpt-start-measure: 127
!!!excerpt-end-measure: 150
!!!excerpt-start-time: 3:22
!!!excerpt-end-time: 3:42
!!!EEV: 2020/01/17
!!!system-decoration: {(s1,s2)}
!!!ONB: Converted from MusicXML on 2020/01/17
